X: 10981
Q: "May be played as a Quadrille."
M: 2/4
L: 1/16
K: C
ed !segno!|:\
c2G2E2G2 | c6 Bc | d2d2d2d2 | d6 cd |\
e2e2e2e2 | egfe dfed | cedc BcdB | c6 H:|
|: cB |\
|: G2 |\
c2cc c2c2 | c6 G2 | c2G2E2C2 | G4 z2G2 |\
c2cc c2c2 | c4 z2e2 | edcB dcBA | G4 efed !segno!:|


